src/camera.svg

<?xml version="1.0" encoding="UTF-8" standalone="no"?>
<svg width="20px" height="20px" viewBox="0 0 20 20" version="1.1" xmlns="http://www.w3.org/2000/svg" xmlns:xlink="http://www.w3.org/1999/xlink">
    <!-- Generator: Sketch 3.7.2 (28276) - http://www.bohemiancoding.com/sketch -->
    <title>camera</title>
    <desc>Created with Sketch.</desc>
    <defs></defs>
    <g id="Page-1" stroke="none" stroke-width="1" fill="none" fill-rule="evenodd">
        <g id="camera" fill="#000000">
            <path d="M0,6.00585866 C0,4.89805351 0.893899798,4 2.0048815,4 L5,4 L7,2 L13,2 L15,4 L17.9951185,4 C19.102384,4 20,4.89706013 20,6.00585866 L20,15.9941413 C20,17.1019465 19.1017876,18 18.0092049,18 L1.99079514,18 C0.891309342,18 0,17.1029399 0,15.9941413 L0,6.00585866 Z M10,16 C12.7614237,16 15,13.7614237 15,11 C15,8.23857625 12.7614237,6 10,6 C7.23857625,6 5,8.23857625 5,11 C5,13.7614237 7.23857625,16 10,16 Z M10,14 C11.6568542,14 13,12.6568542 13,11 C13,9.34314575 11.6568542,8 10,8 C8.34314575,8 7,9.34314575 7,11 C7,12.6568542 8.34314575,14 10,14 Z" id="Combined-Shape"></path>
        </g>
    </g>
</svg>

<svg xmlns="http://www.w3.org/2000/svg" viewBox="0 0 20 20"><path d="M0 6c0-1.1.9-2 2-2h3l2-2h6l2 2h3a2 2 0 0 1 2 2v10a2 2 0 0 1-2 2H2a2 2 0 0 1-2-2V6zm10 10a5 5 0 1 0 0-10 5 5 0 0 0 0 10zm0-2a3 3 0 1 1 0-6 3 3 0 0 1 0 6z"/></svg>
